assets/img/braze_icons/upload-cloud-01.svg

<svg fill="none" height="24" viewBox="0 0 24 24" width="24" xmlns="http://www.w3.org/2000/svg"><path clip-rule="evenodd" d="m19.4914 8.18681c2.5922.66306 4.5086 3.01429 4.5086 5.81319 0 3.3137-2.6863 6-6 6h-11.5c-3.58985 0-6.5-2.9101-6.5-6.5 0-3.0623 2.11764-5.62996 4.96841-6.31852 1.35557-2.49093 3.99615-4.18148 7.03159-4.18148 3.4283 0 6.3528 2.15641 7.4914 5.18681zm-12.19851 4.52029c.39053.3905 1.02369.3905 1.41422 0l2.29289-2.2929v5.5858c0 .5523.4477 1 1 1s1-.4477 1-1v-5.5858l2.2929 2.2929c.3905.3905 1.0237.3905 1.4142 0s.3905-1.0237 0-1.4142l-4-4.00001c-.3905-.39052-1.0237-.39052-1.4142 0l-4.00001 4.00001c-.39052.3905-.39052 1.0237 0 1.4142z" fill="#801ed7" fill-rule="evenodd"/></svg>

<svg width="24" height="24" viewBox="0 0 24 24" fill="none" xmlns="http://www.w3.org/2000/svg">
<path fill-rule="evenodd" clip-rule="evenodd" d="M19.4914 8.18681C22.0836 8.84987 24 11.2011 24 14C24 17.3137 21.3137 20 18 20H6.5C2.91015 20 0 17.0899 0 13.5C0 10.4377 2.11764 7.87004 4.96841 7.18148C6.32398 4.69055 8.96456 3 12 3C15.4283 3 18.3528 5.15641 19.4914 8.18681ZM7.29289 12.7071C7.68342 13.0976 8.31658 13.0976 8.70711 12.7071L11 10.4142L11 16C11 16.5523 11.4477 17 12 17C12.5523 17 13 16.5523 13 16L13 10.4142L15.2929 12.7071C15.6834 13.0976 16.3166 13.0976 16.7071 12.7071C17.0976 12.3166 17.0976 11.6834 16.7071 11.2929L12.7071 7.29289C12.3166 6.90237 11.6834 6.90237 11.2929 7.29289L7.29289 11.2929C6.90237 11.6834 6.90237 12.3166 7.29289 12.7071Z" fill="#801ED7"/>
</svg>
